Simply-Black-Circles/scalable/apps/doublecmd.svg

<?xml version="1.0" encoding="UTF-8" standalone="no"?><svg xmlns:dc="http://purl.org/dc/elements/1.1/" xmlns:cc="http://creativecommons.org/ns#" xmlns:rdf="http://www.w3.org/1999/02/22-rdf-syntax-ns#" xmlns="http://www.w3.org/2000/svg" width="48" height="48" viewBox="0 0 12.7 12.7"><metadata><rdf:RDF><cc:Work><dc:format>image/svg+xml</dc:format><dc:type rdf:resource="http://purl.org/dc/dcmitype/StillImage"/><dc:title/></cc:Work></rdf:RDF></metadata><path d="M6.34.07a6.29 6.29 0 0 0-6.28 6.3 6.29 6.29 0 0 0 6.28 6.28 6.29 6.29 0 0 0 6.3-6.29A6.29 6.29 0 0 0 6.33.07zm-.01.94a5.4 5.4 0 0 1 5.4 5.4 5.4 5.4 0 0 1-5.4 5.41 5.4 5.4 0 0 1-5.41-5.4A5.4 5.4 0 0 1 6.32 1zM2.55 3.94c-.2 0-.2.19-.2.19V9.07s0 .19.2.19h.57a2.66 2.66 0 0 0 0-5.32h-.57zm7.09 0a2.66 2.66 0 0 0 0 5.32h.57c.19 0 .19-.2.19-.2V8.7s0-.2-.19-.2H9.63a1.9 1.9 0 1 1 0-3.8h.58c.19 0 .19-.18.19-.18v-.38s0-.2-.19-.2h-.57zm-6.6.76h.08a1.9 1.9 0 1 1 0 3.8h-.08V4.7z" fill="#1a1a1a" fill-opacity=".99"/></svg>

<?xml version="1.0" encoding="UTF-8" standalone="no"?>
<svg
   xmlns:dc="http://purl.org/dc/elements/1.1/"
   xmlns:cc="http://creativecommons.org/ns#"
   xmlns:rdf="http://www.w3.org/1999/02/22-rdf-syntax-ns#"
   xmlns:svg="http://www.w3.org/2000/svg"
   xmlns="http://www.w3.org/2000/svg"
   xmlns:sodipodi="http://sodipodi.sourceforge.net/DTD/sodipodi-0.dtd"
   xmlns:inkscape="http://www.inkscape.org/namespaces/inkscape"
   width="48"
   height="48"
   viewBox="0 0 12.7 12.7"
   version="1.1"
   id="svg6"
   sodipodi:docname="doublecmd.svg"
   inkscape:version="0.92.4 (5da689c313, 2019-01-14)">
  <defs
     id="defs10" />
  <sodipodi:namedview
     pagecolor="#ffffff"
     bordercolor="#666666"
     borderopacity="1"
     objecttolerance="10"
     gridtolerance="10"
     guidetolerance="10"
     inkscape:pageopacity="0"
     inkscape:pageshadow="2"
     inkscape:window-width="1087"
     inkscape:window-height="480"
     id="namedview8"
     showgrid="false"
     inkscape:zoom="4.9166667"
     inkscape:cx="2.1355932"
     inkscape:cy="24"
     inkscape:window-x="0"
     inkscape:window-y="25"
     inkscape:window-maximized="0"
     inkscape:current-layer="svg6" />
  <metadata
     id="metadata2">
    <rdf:RDF>
      <cc:Work>
        <dc:format>image/svg+xml</dc:format>
        <dc:type
           rdf:resource="http://purl.org/dc/dcmitype/StillImage" />
        <dc:title></dc:title>
      </cc:Work>
    </rdf:RDF>
  </metadata>
  <path
     d="M 6.34,0.07 A 6.29,6.29 0 0 0 0.06,6.37 6.29,6.29 0 0 0 6.34,12.65 6.29,6.29 0 0 0 12.64,6.36 6.29,6.29 0 0 0 6.33,0.07 Z M 6.33,1.01 a 5.4,5.4 0 0 1 5.4,5.4 5.4,5.4 0 0 1 -5.4,5.41 A 5.4,5.4 0 0 1 0.92,6.42 5.4,5.4 0 0 1 6.32,1 Z M 2.55,3.94 c -0.2,0 -0.2,0.19 -0.2,0.19 v 4.94 c 0,0 0,0.19 0.2,0.19 h 0.57 a 2.66,2.66 0 0 0 0,-5.32 z m 7.09,0 a 2.66,2.66 0 0 0 0,5.32 h 0.57 c 0.19,0 0.19,-0.2 0.19,-0.2 V 8.7 c 0,0 0,-0.2 -0.19,-0.2 H 9.63 a 1.9,1.9 0 1 1 0,-3.8 h 0.58 C 10.4,4.7 10.4,4.52 10.4,4.52 V 4.14 c 0,0 0,-0.2 -0.19,-0.2 z M 3.04,4.7 h 0.08 a 1.9,1.9 0 1 1 0,3.8 H 3.04 Z"
     id="path4"
     inkscape:connector-curvature="0"
     style="fill:#1a1a1a;fill-opacity:0.98999999" />
</svg>
